!!!OTL: Der falsche Freier (113), S. 267f
!!!id: T0276
**kern
*clefG2
*k[f#]
*G:
{8d
8g
=1
4.g
8b
8b
8b
8a
8g
=2
8f#
8a
4a}
4r
=3
{8d
8a
=4
4.a
8b
4cc
4a
=5
8g
8b
4b}
4r
=6
{8g
8a
=7
4.b
8b
4b
8b
8b
=8
8a
8b
4cc}
4r
=9
{8cc
8ee
=10
4.dd
8g
8b
8a
8cc
8f#
=11
4a
4g}
4r
==
*-
!!!minrhy: 8
!!!meters: 4/4 ]  ZZ[4
!!!cut: Der falsche Freier (113), S. 267f
!!!reg: Luxemburg
!!!trd: Singendes Volk, Esch-Alzette 1937 posth.
!!!rhy1: XX  X_.XXXXX  XXX_0_
!!!rhy2: XX  X_.XX_X_  XXX_0_
!!!key: T0276  08  G 4/4 ]  ZZ[4
!!!mod: HEPTATONIK IONISCH]  AMBITUS[9
!!!kad: 2341
!!!akz: 13-7_241_332_532_
!!!fot: 'a__as'b__c__
!!!for: 'a__b__c__d__
!!!fok: '~a_~a_/__\__
!! PHRAS[AUFTAKTIG]
!!!fkt: Liebeslieder
!!!bem: StraPen, fff Witry, 13.12.1932
!! THILL, Mathias:
!! PR[35] 2K[0] 2G[3] 3K[6] 3G[3] 4A[3] 4Ü[0] 5A[3] 6K[3] 6G[0]
!! 7K[0] 7G[0] 8A[0] MEHR[0] SI[23] ABS[31] SR[3] SP[19]
!! ST[12] 2k[6] 2g[23] 3k[6] 3g[0] 4d[6] 4ü[0] 5d[0] 6k[0] 6g[0]
!! 7k[0] 7g[0] 8d[0] mehr[0] si[42] dm[-19] sr[29] sp[13]
!! 1F[78] 2F[11] 3F[0] 4F[0] LF[0] 2P[11] 3P[0] 4P[0] TRI[0] DF[3] AB[36]
!! TF[0] U3K[0] U3[0] U4[0] U4Ü[0] U5[0] U6K[0] U6[0] U7K[0] U7[3]
!! N1[3] N2K[0] N2[9] N3K[0] N3[19] N4[19] N4Ü[0] N5[22] N6K[0] N6[16]
!!!n7k: 0] N7[3] O1[6] O2K[0] O2[0] O3K[0] O3[0] HÖ[0
